app/dist/common/images/glycomimetics.svg

<svg height="18" viewBox="0 0 18 18" width="18" xmlns="http://www.w3.org/2000/svg"><path d="m0 0h18v18h-18z" fill="#f0f3fa"/><path d="m9 14-.03-.02-3.94-2.46-.03-.02v-5l.03-.03 3.94-2.46.03-.01.04.02 3.94 2.46.03.03v4.98l-.03.03-3.94 2.46z" fill="#00aeef"/><path d="m9 3.7 4.34 2.65v5.3l-4.34 2.66-4.34-2.65v-5.3zm0-.7-.29.18-4.41 2.66-.3.16v6l.3.18 4.42 2.64.3.18.28-.18 4.42-2.66.28-.16v-.34l-.02-5.3v-.36l-.29-.16-4.39-2.66z" fill="#231f20"/></svg>

<!-- by TradingView --><svg width="18" height="18" viewBox="0 0 18 18" xmlns="http://www.w3.org/2000/svg"><path fill="#F0F3FA" d="M0 0h18v18H0z"/><path d="m9 14-.03-.02-3.94-2.46L5 11.5v-5l.03-.03 3.94-2.46L9 4l.04.02 3.94 2.46.03.03v4.98l-.03.03-3.94 2.46L9 14Z" fill="#00AEEF"/><path d="m9 3.7 4.34 2.65v5.3L9 14.31l-4.34-2.65v-5.3L9 3.7ZM9 3l-.29.18L4.3 5.84 4 6V12l.3.18 4.42 2.64.3.18.28-.18 4.42-2.66L14 12v-.34l-.02-5.3V6l-.29-.16L9.3 3.18 9 3Z" fill="#231F20"/></svg>
